X:1
T:Title
%%score ( 1 2 ) ( 3 4 )
L:1/8
Q:1/4=135
M:3/4
K:C
V:1 treble nm="Choir Aahs, Unnamed-000"
V:2 treble 
V:3 bass nm="Choir Aahs, Unnamed-001"
V:4 bass 
V:1
 [EG]4 [Ee]2 | [Fd]4 [Fc]2 | B3 d cA | [EG]2 [CE]4 | G4 [FA]2 | [Ec]2 [DB]2 [DB]2 | d2 c2 [^FA]2 | %7
w: By~From~Felix~Mendelssohn *|||||||
 G6 | [EG]4 [Ee]2 | [Fd]4 [Fc]2 | B3 d cA | [EG]2 [CE]4 | G4 [Gc]2 | d2 c2 [FA]2 | %14
w: |||||||
 [DG]2 [EA][FB] [Fd]2 | [Ec]6 |] %16
w: ||
V:2
 x6 | x6 | F4 F2 | x6 | x6 | x6 | ^F4 z2 | x6 | x6 | x6 | F4 F2 | x6 | x6 | F4 z2 | x6 | x6 |] %16
V:3
 [C,C]4 [C,G,]2 | [C,A,]4 [C,A,]2 | D3 B, A,C | [C,C]2 [C,G,]4 | [E,C]4 [F,C]2 | G,4 G,2 | %6
 [D,A,]4 [D,C]2 | [G,,B,]6 | [C,C]4 [C,G,]2 | [C,A,]4 [C,A,]2 | D3 B, A,C | [C,C]2 [C,G,]4 | %12
 [E,C]4 [E,_B,]2 | [F,A,]4 [F,C]2 | B,2 CD [G,,B,]2 | [C,G,]6 |] %16
V:4
 x6 | x6 | C,4 C,2 | x6 | x6 | x6 | x6 | x6 | x6 | x6 | C,4 C,2 | x6 | x6 | x6 | G,4 z2 | x6 |] %16

